icons/lines/battery-charging.svg

<svg xmlns="http://www.w3.org/2000/svg" width="24" height="24" viewBox="0 0 24 24" fill="none" stroke="currentColor" stroke-width="2" stroke-linecap="round" stroke-linejoin="round" >
  <path d="M20.5 9.5C22 9.5 22 10 22 11V13C22 14 22 14.5 20.5 14.5"/>
  <path d="M10.0002 8L8.1102 10.5C7.7202 11.17 8.2002 12 8.9702 12H11.2702C12.0402 12 12.5202 12.83 12.1402 13.5L10.0002 16"/>
  <path d="M7 19C3 19 2 18 2 14V10C2 6 3 5 7 5"/>
  <path d="M13 5C17 5 18 6 18 10V14C18 18 17 19 13 19"/>
  </svg>

<svg xmlns="http://www.w3.org/2000/svg" width="24" height="24" viewBox="0 0 24 24" fill="none" stroke="currentColor" stroke-width="2" stroke-linecap="round" stroke-linejoin="round">
  <path d="m10 8-1.89 2.5a1 1 0 0 0 .86 1.5h2.3a1 1 0 0 1 .87 1.5L10 16" />
  <path d="M13 5c4 0 5 1 5 5v4c0 4-1 5-5 5" />
  <path d="M20.5 9.5C22 9.5 22 10 22 11v2c0 1 0 1.5-1.5 1.5" />
  <path d="M7 19c-4 0-5-1-5-5v-4c0-4 1-5 5-5" />
</svg>
